Adwaita++/places/scalable/distributor-logo.svg

<svg fill="none" height="128" viewBox="0 0 128 128" width="128" xmlns="http://www.w3.org/2000/svg" xmlns:xlink="http://www.w3.org/1999/xlink">
  <linearGradient id="paint0_linear" gradientUnits="userSpaceOnUse" x1="116" x2="12" y1="117.999" y2="117.999">
    <stop offset="0" stop-color="#d5d3cf"/>
    <stop offset=".038" stop-color="#e3e2df"/>
    <stop offset=".077" stop-color="#c0bfbc"/>
    <stop offset=".923" stop-color="#c0bfbc"/>
    <stop offset=".962" stop-color="#e3e2df"/>
    <stop offset="1" stop-color="#d5d3cf"/>
  </linearGradient>
  <path d="m108 68h-88c-4.4183 0-8 3.5817-8 8v32c0 4.418 3.5817 8 8 8h88c4.418 0 8-3.582 8-8v-32c0-4.4183-3.582-8-8-8z" fill="url(#paint0_linear)"/>
  <path d="m20 10c-4.432 0-8 3.568-8 8v42 42c0 4.432 3.568 8 8 8h44 44c4.432 0 8-3.568 8-8v-42-42c0-4.432-3.568-8-8-8z" fill="#e66100"/>
  <path d="m34.7449 53.5313c-3.5744 0-6.4701 2.8956-6.4701 6.4701 0 3.5723 2.8957 6.468 6.4701 6.468 3.5723 0 6.468-2.8957 6.468-6.468-.0011-3.5745-2.8967-6.4701-6.468-6.4701zm46.1844 29.3993c-3.0945 1.7872-4.1548 5.7411-2.3675 8.8335 1.785 3.0945 5.7389 4.1548 8.8334 2.3676 3.0945-1.7851 4.1549-5.739 2.3677-8.8335-1.7862-3.0912-5.7423-4.1527-8.8336-2.3676zm-32.1346-22.9292c0-6.3921 3.1757-12.0402 8.0339-15.4597l-4.7288-7.9206c-5.6599 3.7829-9.8703 9.5635-11.6201 16.334 2.0416 1.6665 3.3488 4.203 3.3488 7.0463 0 2.8412-1.3072 5.3777-3.3488 7.0441 1.7476 6.7726 5.9581 12.5533 11.6201 16.3362l4.7288-7.9228c-4.8582-3.4173-8.0339-9.0644-8.0339-15.4575zm18.894-18.8962c9.8704 0 17.9695 7.5679 18.8182 17.2191l9.2173-.1358c-.4532-7.1253-3.5659-13.5217-8.3493-18.226-2.4595.9289-5.3007.7867-7.756-.6285-2.4596-1.4195-4.0021-3.8139-4.4243-6.4135-2.3901-.6595-4.9062-1.0208-7.5069-1.0208-4.4723 0-8.6999 1.0497-12.4528 2.9085l4.4948 8.0543c2.4179-1.1245 5.1157-1.7573 7.959-1.7573zm0 37.7903c-2.8433 0-5.5412-.6328-7.958-1.7584l-4.4948 8.0543c3.7541 1.8599 7.9816 2.9106 12.4528 2.9106 2.6018 0 5.117-.3613 7.5071-1.023.4222-2.5995 1.9646-4.9918 4.4242-6.4134 2.4574-1.4174 5.2964-1.5574 7.756-.6285 4.7833-4.7032 7.896-11.1007 8.3492-18.226l-9.2193-.1358c-.8487 9.6544-8.9468 17.2202-18.8172 17.2202zm13.2385-41.8276c3.0945 1.7872 7.0484.729 8.8335-2.3655 1.7872-3.0945.729-7.0484-2.3655-8.8356-3.0945-1.7851-7.0483-.7247-8.8356 2.3698-1.785 3.0923-.7247 7.0462 2.3676 8.8313z" fill="#f6f5f4"/>
</svg>

<svg xmlns="http://www.w3.org/2000/svg" fill="none" width="128" height="128" viewBox="0 0 128 128">
 <path fill="url(#paint0_linear)" d="M108 68H20C15.5817 68 12 71.5817 12 76V108C12 112.418 15.5817 116 20 116H108C112.418 116 116 112.418 116 108V76C116 71.5817 112.418 68 108 68Z"/>
 <path fill="url(#paint1_linear)" d="M20 10C15.568 10 12 13.568 12 18V60V102C12 106.432 15.568 110 20 110H64H108C112.432 110 116 106.432 116 102V60V18C116 13.568 112.432 10 108 10H20Z"/>
 <path fill="#F6F5F4" d="M34.7449 53.5313C31.1705 53.5313 28.2748 56.4269 28.2748 60.0014C28.2748 63.5737 31.1705 66.4694 34.7449 66.4694C38.3172 66.4694 41.2129 63.5737 41.2129 60.0014C41.2118 56.4269 38.3162 53.5313 34.7449 53.5313ZM80.9293 82.9306C77.8348 84.7178 76.7745 88.6717 78.5618 91.7641C80.3468 94.8586 84.3007 95.9189 87.3952 94.1317C90.4897 92.3466 91.5501 88.3927 89.7629 85.2982C87.9767 82.207 84.0206 81.1455 80.9293 82.9306ZM48.7947 60.0014C48.7947 53.6093 51.9704 47.9612 56.8286 44.5417L52.0998 36.6211C46.4399 40.404 42.2295 46.1846 40.4797 52.9551C42.5213 54.6216 43.8285 57.1581 43.8285 60.0014C43.8285 62.8426 42.5213 65.3791 40.4797 67.0455C42.2273 73.8181 46.4378 79.5988 52.0998 83.3817L56.8286 75.4589C51.9704 72.0416 48.7947 66.3945 48.7947 60.0014ZM67.6887 41.1052C77.5591 41.1052 85.6582 48.6731 86.5069 58.3243L95.7242 58.1885C95.271 51.0632 92.1583 44.6668 87.3749 39.9625C84.9154 40.8914 82.0742 40.7492 79.6189 39.334C77.1593 37.9145 75.6168 35.5201 75.1946 32.9205C72.8045 32.261 70.2884 31.8997 67.6877 31.8997C63.2154 31.8997 58.9878 32.9494 55.2349 34.8082L59.7297 42.8625C62.1476 41.738 64.8454 41.1052 67.6887 41.1052V41.1052ZM67.6887 78.8955C64.8454 78.8955 62.1475 78.2627 59.7307 77.1371L55.2359 85.1914C58.99 87.0513 63.2175 88.102 67.6887 88.102C70.2905 88.102 72.8057 87.7407 75.1958 87.079C75.618 84.4795 77.1604 82.0872 79.62 80.6656C82.0774 79.2482 84.9164 79.1082 87.376 80.0371C92.1593 75.3339 95.272 68.9364 95.7252 61.8111L86.5059 61.6753C85.6572 71.3297 77.5591 78.8955 67.6887 78.8955V78.8955ZM80.9272 37.0679C84.0217 38.8551 87.9756 37.7969 89.7607 34.7024C91.5479 31.6079 90.4897 27.654 87.3952 25.8668C84.3007 24.0817 80.3469 25.1421 78.5596 28.2366C76.7746 31.3289 77.8349 35.2828 80.9272 37.0679V37.0679Z"/>
 <defs>
  <linearGradient id="paint0_linear" x1="116" x2="12" y1="117.999" y2="117.999" gradientUnits="userSpaceOnUse">
   <stop stop-color="#D5D3CF"/>
   <stop offset=".038" stop-color="#E3E2DF"/>
   <stop offset=".077" stop-color="#C0BFBC"/>
   <stop offset=".923" stop-color="#C0BFBC"/>
   <stop offset=".962" stop-color="#E3E2DF"/>
   <stop offset="1" stop-color="#D5D3CF"/>
  </linearGradient>
  <linearGradient id="paint1_linear" x1="12" x2="116" y1="60" y2="60" gradientUnits="userSpaceOnUse">
   <stop stop-color="#E66100"/>
  </linearGradient>
 </defs>
</svg>
